Yaru++/mimetypes/scalable/inode-symlink.svg

<svg height="256" viewBox="0 0 67.73 67.73" width="256" xmlns="http://www.w3.org/2000/svg" xmlns:xlink="http://www.w3.org/1999/xlink"><linearGradient id="a" gradientTransform="matrix(0 -.11988342 .11987999 0 .362762 63.54311)" gradientUnits="userSpaceOnUse" x1="529.65515" x2="-35.310345" y1="401.58368" y2="119.09284"><stop offset="0" stop-color="#f2f2f2"/><stop offset="1" stop-color="#f9f9f9"/></linearGradient><linearGradient id="b" gradientUnits="userSpaceOnUse" x1="88" x2="488" y1="88" y2="488"><stop offset="0" stop-opacity=".588235"/><stop offset=".88" stop-opacity="0"/><stop offset="1"/></linearGradient><filter id="c" color-interpolation-filters="sRGB" height="1.087725" width="1.105998" x="-.052999" y="-.043863"><feGaussianBlur stdDeviation="8.4801079"/></filter><filter id="d" color-interpolation-filters="sRGB" height="1.021931" width="1.0265" x="-.01325" y="-.010966"><feGaussianBlur stdDeviation="2.120027"/></filter><path d="m20.703991 4.2793602c-9.338465 0-10.343273.959178-10.297505 10.3165308v19.315345 19.315344c-.04577 9.357355.95904 10.316531 10.297505 10.316531h25.969365c9.338465 0 10.297506-.959068 10.297506-10.316531v-19.315344-19.315345c0-9.3574638-.959041-10.3165308-10.297506-10.3165308z" fill="none" opacity=".2" stroke="#000" stroke-width="1.058281"/><path d="m189.84323 74c-70.59344 0-78.18921 7.250835-77.84323 77.98706v146.01294 146.01294c-.34598 70.73623 7.24979 77.98706 77.84323 77.98706h196.31354c70.59344 0 76.00668-7.27384 77.84323-77.98706v-146.01294-146.01294c0-70.737067-7.24979-77.98706-77.84323-77.98706z" filter="url(#d)" opacity=".1" transform="matrix(.13228516 0 0 .13228516 -4.409451 -5.245171)"/><path d="m189.84323 74c-70.59344 0-78.18921 7.250835-77.84323 77.98706v146.01294 146.01294c-.34598 70.73623 7.24979 77.98706 77.84323 77.98706h196.31354c70.59344 0 77.84323-7.24999 77.84323-77.98706v-146.01294-146.01294c0-70.737067-7.24979-77.98706-77.84323-77.98706z" fill="url(#b)" filter="url(#c)" opacity=".3" transform="matrix(.13228516 0 0 .13228516 -4.409451 -5.245171)"/><path d="m20.703991 4.2793602c-9.338465 0-10.343273.959178-10.297505 10.3165308v19.315345 19.315344c-.04577 9.357355.95904 10.316531 10.297505 10.316531h25.969365c9.338465 0 10.297506-.959068 10.297506-10.316531v-19.315344-19.315345c0-9.3574638-.959041-10.3165308-10.297506-10.3165308z" fill="url(#a)"/><path d="m20.70406 4.2793602c-9.338467 0-10.343342.95934-10.297574 10.3166918v.529141c-.045768-9.3573518.959107-10.3166918 10.297574-10.3166918h25.969228c9.338467 0 10.297574.959228 10.297574 10.3166918v-.529141c0-9.3574628-.959107-10.3166918-10.297574-10.3166918z" fill="#fff" opacity=".6"/><path d="m23.279631 20.56397-3.202219 3.202229 10.409601 10.409607-10.409601 10.409617 3.202219 3.202219 10.409614-10.409604 10.407035 10.409604 3.20223-3.202219-10.409612-10.409617 10.409612-10.409607-3.20223-3.202229-10.407035 10.409617z" fill="#f22c42" fill-rule="evenodd" stroke-width="4.279562"/><g fill="#fff"><path d="m33.688674 4.2793602v59.2637508h12.984614c9.338464 0 10.054627-.962123 10.297574-10.316435v-19.31544-19.315442c0-9.3574638-.95911-10.3164338-10.297574-10.3164338z" opacity=".1"/><path d="m10.406486 33.911236v19.31544c-.04577 9.357354.959108 10.316435 10.297574 10.316435h25.969228c9.338464 0 10.054627-.962123 10.297574-10.316435v-19.31544z" opacity=".1"/><path d="m41.096643 63.543111 15.874219-15.874219v5.948567c-.01384 8.994282-1.006077 9.925652-10.099734 9.925652z" opacity=".1"/></g></svg>

<?xml version="1.0" encoding="UTF-8" standalone="no"?>
<svg
   xmlns:dc="http://purl.org/dc/elements/1.1/"
   xmlns:cc="http://creativecommons.org/ns#"
   xmlns:rdf="http://www.w3.org/1999/02/22-rdf-syntax-ns#"
   xmlns:svg="http://www.w3.org/2000/svg"
   xmlns="http://www.w3.org/2000/svg"
   xmlns:xlink="http://www.w3.org/1999/xlink"
   xmlns:sodipodi="http://sodipodi.sourceforge.net/DTD/sodipodi-0.dtd"
   xmlns:inkscape="http://www.inkscape.org/namespaces/inkscape"
   width="256"
   height="256"
   version="1.1"
   viewBox="0 0 67.73 67.73"
   id="svg33"
   sodipodi:docname="inode-symlink.svg"
   inkscape:version="0.92.4 (5da689c313, 2019-01-14)">
  <metadata
     id="metadata37">
    <rdf:RDF>
      <cc:Work
         rdf:about="">
        <dc:format>image/svg+xml</dc:format>
        <dc:type
           rdf:resource="http://purl.org/dc/dcmitype/StillImage" />
      </cc:Work>
    </rdf:RDF>
  </metadata>
  <sodipodi:namedview
     pagecolor="#ffffff"
     bordercolor="#666666"
     borderopacity="1"
     objecttolerance="10"
     gridtolerance="10"
     guidetolerance="10"
     inkscape:pageopacity="0"
     inkscape:pageshadow="2"
     inkscape:window-width="856"
     inkscape:window-height="480"
     id="namedview35"
     showgrid="false"
     inkscape:zoom="0.921875"
     inkscape:cx="128"
     inkscape:cy="128"
     inkscape:window-x="0"
     inkscape:window-y="27"
     inkscape:window-maximized="0"
     inkscape:current-layer="svg33" />
  <defs
     id="defs11">
    <linearGradient
       id="linearGradient4226"
       x1="529.655"
       x2="-35.31"
       y1="401.584"
       y2="119.093"
       gradientTransform="matrix(0 -.11988932 .11988589 0 .36277965 292.5483)"
       gradientUnits="userSpaceOnUse">
      <stop
         style="stop-color:#f2f2f2"
         id="stop2"
         offset="0" />
      <stop
         style="stop-color:#f9f9f9"
         id="stop4"
         offset="1" />
    </linearGradient>
    <linearGradient
       id="linearGradient4358"
       x1="88"
       x2="488"
       y1="88"
       y2="488"
       gradientUnits="userSpaceOnUse">
      <stop
         style="stop-color:#000000;stop-opacity:.58823532"
         id="stop7"
         offset="0" />
      <stop
         style="stop-color:#000000;stop-opacity:0"
         id="stop9"
         offset=".88" />
      <stop
         style="stop-color:#000000"
         id="stop11"
         offset="1" />
    </linearGradient>
    <filter
       id="filter4346"
       width="1.026"
       height="1.022"
       x="-.01"
       y="-.01"
       style="color-interpolation-filters:sRGB">
      <feGaussianBlur
         id="feGaussianBlur14"
         stdDeviation="2.12" />
    </filter>
    <linearGradient
       gradientUnits="userSpaceOnUse"
       y2="119.09284"
       x2="-35.310345"
       y1="401.58368"
       x1="529.65515"
       id="linearGradient4226-3"
       xlink:href="#linearGradient4338"
       inkscape:collect="always"
       gradientTransform="matrix(0,-0.11988342,0.11987999,0,0.3627617,63.54311)" />
    <linearGradient
       inkscape:collect="always"
       id="linearGradient4338">
      <stop
         style="stop-color:#f2f2f2;stop-opacity:1"
         offset="0"
         id="stop4340" />
      <stop
         style="stop-color:#f9f9f9;stop-opacity:1"
         offset="1"
         id="stop4342" />
    </linearGradient>
    <linearGradient
       inkscape:collect="always"
       xlink:href="#linearGradient4360"
       id="linearGradient4358-6"
       x1="88"
       y1="88"
       x2="488"
       y2="488"
       gradientUnits="userSpaceOnUse" />
    <linearGradient
       id="linearGradient4360"
       inkscape:collect="always">
      <stop
         id="stop4362"
         offset="0"
         style="stop-color:#000000;stop-opacity:0.58823532" />
      <stop
         style="stop-color:#000000;stop-opacity:0"
         offset="0.88"
         id="stop4364" />
      <stop
         id="stop4366"
         offset="1"
         style="stop-color:#000000;stop-opacity:1" />
    </linearGradient>
    <filter
       inkscape:collect="always"
       style="color-interpolation-filters:sRGB"
       id="filter4380"
       x="-0.052999184"
       width="1.1059984"
       y="-0.043862626"
       height="1.0877253">
      <feGaussianBlur
         inkscape:collect="always"
         stdDeviation="8.4801079"
         id="feGaussianBlur4382" />
    </filter>
    <filter
       inkscape:collect="always"
       style="color-interpolation-filters:sRGB"
       id="filter4346-7"
       x="-0.013249796"
       width="1.0264996"
       y="-0.010965657"
       height="1.0219313">
      <feGaussianBlur
         inkscape:collect="always"
         stdDeviation="2.120027"
         id="feGaussianBlur4348" />
    </filter>
  </defs>
  <path
     sodipodi:nodetypes="scccssscsss"
     inkscape:connector-curvature="0"
     id="path1163"
     d="m 20.703991,4.2793602 c -9.338465,0 -10.343273,0.959178 -10.297505,10.3165308 V 33.911236 53.22658 c -0.04577,9.357355 0.95904,10.316531 10.297505,10.316531 h 25.969365 c 9.338465,0 10.297506,-0.959068 10.297506,-10.316531 V 33.911236 14.595891 c 0,-9.3574638 -0.959041,-10.3165308 -10.297506,-10.3165308 z"
     style="color:#000000;display:inline;overflow:visible;visibility:visible;opacity:0.2;fill:none;fill-opacity:1;fill-rule:nonzero;stroke:#000000;stroke-width:1.0582813;stroke-miterlimit:4;stroke-dasharray:none;stroke-opacity:1;marker:none;enable-background:accumulate" />
  <path
     style="color:#000000;display:inline;overflow:visible;visibility:visible;opacity:0.1;fill:#000000;fill-opacity:1;fill-rule:nonzero;stroke:none;stroke-width:2;marker:none;filter:url(#filter4346-7);enable-background:accumulate"
     d="M 189.84323,74 C 119.24979,74 111.65402,81.250835 112,151.98706 V 298 444.01294 C 111.65402,514.74917 119.24979,522 189.84323,522 H 386.15677 C 456.75021,522 462.16345,514.72616 464,444.01294 V 298 151.98706 C 464,81.249993 456.75021,74 386.15677,74 Z"
     id="rect4158-9"
     inkscape:connector-curvature="0"
     sodipodi:nodetypes="scccssscsss"
     transform="matrix(0.13228516,0,0,0.13228516,-4.4094514,-5.2451706)" />
  <path
     sodipodi:nodetypes="scccssscsss"
     inkscape:connector-curvature="0"
     id="path4350"
     d="M 189.84323,74 C 119.24979,74 111.65402,81.250835 112,151.98706 V 298 444.01294 C 111.65402,514.74917 119.24979,522 189.84323,522 H 386.15677 C 456.75021,522 464,514.75001 464,444.01294 V 298 151.98706 C 464,81.249993 456.75021,74 386.15677,74 Z"
     style="color:#000000;display:inline;overflow:visible;visibility:visible;opacity:0.3;fill:url(#linearGradient4358-6);fill-opacity:1;fill-rule:nonzero;stroke:none;stroke-width:2;marker:none;filter:url(#filter4380);enable-background:accumulate"
     transform="matrix(0.13228516,0,0,0.13228516,-4.4094514,-5.2451706)" />
  <path
     style="color:#000000;display:inline;overflow:visible;visibility:visible;fill:url(#linearGradient4226-3);fill-opacity:1;fill-rule:nonzero;stroke:none;stroke-width:0.26457033;marker:none;enable-background:accumulate"
     d="m 20.703991,4.2793602 c -9.338465,0 -10.343273,0.959178 -10.297505,10.3165308 V 33.911236 53.22658 c -0.04577,9.357355 0.95904,10.316531 10.297505,10.316531 h 25.969365 c 9.338465,0 10.297506,-0.959068 10.297506,-10.316531 V 33.911236 14.595891 c 0,-9.3574638 -0.959041,-10.3165308 -10.297506,-10.3165308 z"
     id="rect4158"
     inkscape:connector-curvature="0"
     sodipodi:nodetypes="scccssscsss" />
  <path
     style="color:#000000;display:inline;overflow:visible;visibility:visible;opacity:0.6;fill:#ffffff;fill-opacity:1;fill-rule:nonzero;stroke:none;stroke-width:0.26457033;marker:none;enable-background:accumulate"
     d="m 20.70406,4.2793602 c -9.338467,0 -10.343342,0.95934 -10.297574,10.3166918 v 0.529141 C 10.360718,5.7678412 11.365593,4.8085012 20.70406,4.8085012 h 25.969228 c 9.338467,0 10.297574,0.959228 10.297574,10.3166918 v -0.529141 c 0,-9.3574628 -0.959107,-10.3166918 -10.297574,-10.3166918 z"
     id="path931"
     inkscape:connector-curvature="0" />
  <path
     inkscape:connector-curvature="0"
     d="M 23.279631,20.56397 20.077412,23.766199 30.487013,34.175806 20.077412,44.585423 23.279631,47.787642 33.689245,37.378038 44.09628,47.787642 47.29851,44.585423 36.888898,34.175806 47.29851,23.766199 44.09628,20.56397 33.689245,30.973587 Z"
     style="display:inline;fill:#f22c42;fill-opacity:1;fill-rule:evenodd;stroke-width:4.27956247;paint-order:fill markers stroke;enable-background:new"
     id="path15" />
  <path
     style="color:#000000;display:inline;overflow:visible;visibility:visible;opacity:0.1;fill:#ffffff;fill-opacity:1;fill-rule:nonzero;stroke:none;stroke-width:0.26457033;marker:none;enable-background:accumulate"
     d="M 33.688674,4.2793602 V 63.543111 h 12.984614 c 9.338464,0 10.054627,-0.962123 10.297574,-10.316435 V 33.911236 14.595794 c 0,-9.3574638 -0.95911,-10.3164338 -10.297574,-10.3164338 z"
     id="path4231"
     inkscape:connector-curvature="0"
     sodipodi:nodetypes="ccsscssc" />
  <path
     inkscape:connector-curvature="0"
     style="color:#000000;display:inline;overflow:visible;visibility:visible;opacity:0.1;fill:#ffffff;fill-opacity:1;fill-rule:nonzero;stroke:none;stroke-width:0.26457033;marker:none;enable-background:accumulate"
     d="m 10.406486,33.911236 v 19.31544 c -0.04577,9.357354 0.959108,10.316435 10.297574,10.316435 h 25.969228 c 9.338464,0 10.054627,-0.962123 10.297574,-10.316435 v -19.31544 z"
     id="path4255"
     sodipodi:nodetypes="ccssscc" />
  <path
     style="color:#000000;display:inline;overflow:visible;visibility:visible;opacity:0.1;fill:#ffffff;fill-opacity:1;fill-rule:nonzero;stroke:none;stroke-width:2.11656237;stroke-linecap:butt;stroke-linejoin:miter;stroke-miterlimit:4;stroke-dasharray:none;stroke-dashoffset:0;stroke-opacity:1;marker:none;enable-background:accumulate"
     d="M 41.096643,63.543111 56.970862,47.668892 v 5.948567 c -0.01384,8.994282 -1.006077,9.925652 -10.099734,9.925652 z"
     id="path4254"
     inkscape:connector-curvature="0"
     sodipodi:nodetypes="cccsc" />
</svg>
